X: 2
T: March Of The Meeatoiteen Bull
R: reel
M: 4/4
L: 1/8
K: Ador
|:"Am"AAAB e4 | (uedBd) e2g2| "G"GGGB d3ue| dBGB vd2ue2| "Am"AAABe4|"Am"(ed)Bd e2a2| "G"g2(eg) "Em7"efed| "Am"(Bc/B/A2) uA2ue2:| "Am"va4ue2ua2| edef g2a2|"G"GGGB d3e| dBGB "G/E"d2e2| "Am"a4 "Am/B"ue2ua2| "Am/C"edef "D"e2a2| "Em"g2(eg) "G"efed|"Am"(Bc/B/A2) (uA2ue2)| "Am"a4 "Am/E"ue2ua2| "C/A"edef "Dmaj7"g3a| "G"GGGB d3ue| dBGB "G/E"d2e2|"Am"AAAB "Am/B"e4| "Am/C"(ed)Bd "Am/D"e2a2| "Em"g2(eg) efed| "G"(Bc/B/A2) "Am"A2x2|]


Tune 2123	Setting 25080

